packages/icons/svg/Fill/person-add.svg

<svg fill="none" height="24" viewBox="0 0 24 24" width="24" xmlns="http://www.w3.org/2000/svg"><path clip-rule="evenodd" d="m10 11c2.206 0 4-1.794 4-4s-1.794-4-4-4-4 1.794-4 4 1.794 4 4 4zm11-5.00007h-1v-1c0-.55-.45-1-1-1s-1 .45-1 1v1h-1c-.55 0-1 .45-1 1s.45 1.00001 1 1.00001h1v1c0 .55.45 1 1 1s1-.45 1-1v-1h1c.55 0 1-.45001 1-1.00001s-.45-1-1-1zm-4 13.99997c0 .552-.447 1-1 1h-12c-.553 0-1-.448-1-1 0-3.86 3.141-7 7-7s7 3.14 7 7z" fill="#6b7280" fill-rule="evenodd"/></svg>

<svg width="24" height="24" viewBox="0 0 24 24" fill="none" xmlns="http://www.w3.org/2000/svg">
<g id="Icon/Fill/person-add">
<path id="Mask" fill-rule="evenodd" clip-rule="evenodd" d="M10 11C12.206 11 14 9.206 14 7C14 4.794 12.206 3 10 3C7.794 3 6 4.794 6 7C6 9.206 7.794 11 10 11ZM21 6H20V5C20 4.45 19.55 4 19 4C18.45 4 18 4.45 18 5V6H17C16.45 6 16 6.45 16 7C16 7.55 16.45 8 17 8H18V9C18 9.55 18.45 10 19 10C19.55 10 20 9.55 20 9V8H21C21.55 8 22 7.55 22 7C22 6.45 21.55 6 21 6ZM17 20C17 20.552 16.553 21 16 21H4C3.447 21 3 20.552 3 20C3 16.14 6.141 13 10 13C13.859 13 17 16.14 17 20Z" fill="#000000"/>
</g>
</svg>
